X: 8
M: C
L: 1/8
K: G
[|\
e2 e2 d3 B | c2 c2 B3 G | E2 A2 A3 G | FD EF GA Bd |
e2 e2 d3 B | c2 c2 B3 G | E2 A2 A3 G | FD EF G2 D2 |]
in England \"osed fir a different dance.  Dis een is in G and du haes
ta geng doon ower to da third string.  Afore du plays him, try du
over da scale o' G.


